X:6
T:Gwyll cyn Gwawr - Dark before Dawn
M:2/4
L:1/8
Q:120
C:John Tose
R:Slow air
K:D
DE FG | AF ED | EF GA | BG FE | DE FG | AF ED | EF ED | E4 :||
!M:3/4 L:1/8 Q:120
BG FE FG | AF ED EF | BG FE FG | A6 | BG FE FG | AF ED EF | E2 EF ED |
E6 :||
